X:1
T:There is a Happy Land
M:2/4
L:1/8
K:D
 F2 FE| FA A2| F2 F3/2 E/2| D4| F2 FE| FA A2| F2 F3/2 E/2| D4| d2 dA|\
 BA A2| FE FA| BA A2| d2 dA| BA A2| F2 F3/2 E/2| D4|
